proprietary/assets/icons/mensen-aan-het-werk/ongepland-overleg.svg

<svg viewBox="0 0 64 64" xmlns="http://www.w3.org/2000/svg"><path d="m0 0h64v64h-64z" fill="none"/><path d="m58.81 39c-.25-3.92-.37-7.5-1.31-14.21s-6.14-4.79-6.14-4.79a6.46 6.46 0 0 0 -1.94 1.27l-.11.1-9.16 9.8h4.24a3.78 3.78 0 0 0 2.35-1.17c.43-.43 1-.95 1-.95.19 2.19 1 7 1.13 7.94a1.33 1.33 0 0 1 -1.35 1.66h-9.34c-2.19 0-3 1.71-2.59 3.41s3.62 14.86 3.62 14.86l1.07 3.75a5.14 5.14 0 0 0 3.35-6.59c-1-3.66-1.23-5.95-2-8.51.69.11 7.34 0 11.27 0s6.16-2.65 5.91-6.57z"/><path d="m22.31 36.76h22.16a1.46 1.46 0 0 0 1.46-1.47v-2h-24.93s1 2.71 1.31 3.47z"/><path d="m14.74 12.52c2.53.73 4.52-.62 5.26-3.18.84-2.91-.24-4.92-2.71-5.64s-4.54.69-5.29 3.3c-.82 2.8.2 4.78 2.74 5.52z"/><path d="m49.89 18.33c2.61.4 4.4-1.2 4.8-3.84.46-3-.87-4.85-3.41-5.24s-4.42 1.27-4.83 4 .82 4.68 3.44 5.08z"/><path d="m18.68 31.93c0-.4.13-7.42 0-9.71a46 46 0 0 0 2.32 4.34 25.11 25.11 0 0 0 3 3.44l.39.33a5.43 5.43 0 0 0 3 .87h2.43c-2.09-2.11-5.58-6.25-5.58-6.25a18.39 18.39 0 0 1 -1.79-3.95c-1.3-3.7-2.09-7-8.74-7a7.81 7.81 0 0 0 -6 2.33 31.45 31.45 0 0 0 -2.45 5.67 12.24 12.24 0 0 0 -.6 2.64 58.65 58.65 0 0 0 -.09 6.36 4.13 4.13 0 0 0 2.83 3.62l.22-3.77c.13-1.9.48-4.38.63-5.41.05 1.88.12 4.18.16 6.71a45.56 45.56 0 0 0 .36 6.75c-.09 4.56.3 16.66.3 17a4.6 4.6 0 0 0 3.69 4.7c0-.25 1.47-16.71 2.22-24.21a.24.24 0 0 1 .25.23l.48 4.54c.16.73 1.3 3.51 1.3 3.51-.8 3.12-1.35 6.15-2.35 10.76-.87 4 2.4 4.72 2.55 4.77 1.92-5.17 3.68-10.07 5.33-14.81a2.75 2.75 0 0 0 0-1.9c-1.03-2.76-3.81-11.44-3.86-11.56z"/></svg>

<svg xmlns="http://www.w3.org/2000/svg" viewBox="0 0 64 64"><defs><style>.cls-1{fill:none;}</style></defs><g id="BOX"><rect class="cls-1" width="64" height="64"/></g><g id="ICOON"><path d="M58.81,39c-.25-3.92-.37-7.5-1.31-14.21S51.36,20,51.36,20a6.46,6.46,0,0,0-1.94,1.27l-.11.1-9.16,9.8h4.24A3.78,3.78,0,0,0,46.74,30c.43-.43,1-.95,1-.95.19,2.19,1,7,1.13,7.94a1.33,1.33,0,0,1-1.35,1.66H38.18c-2.19,0-3,1.71-2.59,3.41s3.62,14.86,3.62,14.86l1.07,3.75a5.14,5.14,0,0,0,3.35-6.59c-1-3.66-1.23-5.95-2-8.51.69.11,7.34,0,11.27,0S59.06,42.92,58.81,39Z"/><path d="M22.31,36.76H44.47a1.46,1.46,0,0,0,1.46-1.47v-2H21S22,36,22.31,36.76Z"/><path d="M14.74,12.52c2.53.73,4.52-.62,5.26-3.18.84-2.91-.24-4.92-2.71-5.64S12.75,4.39,12,7C11.18,9.8,12.2,11.78,14.74,12.52Z"/><path d="M49.89,18.33c2.61.4,4.4-1.2,4.8-3.84.46-3-.87-4.85-3.41-5.24s-4.42,1.27-4.83,4S47.27,17.93,49.89,18.33Z"/><path d="M18.68,31.93c0-.4.13-7.42,0-9.71A46,46,0,0,0,21,26.56,25.11,25.11,0,0,0,24,30l.39.33a5.43,5.43,0,0,0,3,.87l2.43,0c-2.09-2.11-5.58-6.25-5.58-6.25A18.39,18.39,0,0,1,22.45,21h0c-1.3-3.7-2.09-7-8.74-7a7.81,7.81,0,0,0-6,2.33A31.45,31.45,0,0,0,5.26,22a12.24,12.24,0,0,0-.6,2.64A58.65,58.65,0,0,0,4.57,31,4.13,4.13,0,0,0,7.4,34.62l.22-3.77c.13-1.9.48-4.38.63-5.41.05,1.88.12,4.18.16,6.71a45.56,45.56,0,0,0,.36,6.75c-.09,4.56.3,16.66.3,17a4.6,4.6,0,0,0,3.69,4.7c0-.25,1.47-16.71,2.22-24.21a.24.24,0,0,1,.25.23l.48,4.54c.16.73,1.3,3.51,1.3,3.51-.8,3.12-1.35,6.15-2.35,10.76-.87,4,2.4,4.72,2.55,4.77,1.92-5.17,3.68-10.07,5.33-14.81a2.75,2.75,0,0,0,0-1.9C21.51,40.73,18.73,32.05,18.68,31.93Z"/></g></svg>
